polaris-icons/icons/new-icons/ViewportTallMajor.svg

<svg width="20" height="20" viewBox="0 0 20 20" fill="none" xmlns="http://www.w3.org/2000/svg">
<path d="M9.25018 9.0004L9.25018 6.56066L8.53051 7.28033C8.23762 7.57323 7.76275 7.57323 7.46985 7.28034C7.17696 6.98744 7.17696 6.51257 7.46985 6.21968L9.46985 4.21967C9.61051 4.07901 9.80129 3.99999 10.0002 4C10.1991 4.00001 10.3899 4.07905 10.5306 4.21972L12.5306 6.22013C12.8234 6.51305 12.8234 6.98792 12.5305 7.28079C12.2375 7.57365 11.7627 7.5736 11.4698 7.28068L10.7502 6.56092L10.7502 9.0004C10.7502 9.41462 10.4144 9.7504 10.0002 9.7504C9.58597 9.7504 9.25018 9.41462 9.25018 9.0004Z" fill="#4A4A4A"/>
<path d="M5.75 16.0004C4.23122 16.0004 3 14.7692 3 13.2504V6.7504C3 5.23162 4.23122 4.0004 5.75 4.0004L6.625 4.0004C7.03921 4.0004 7.375 4.33619 7.375 4.7504C7.375 5.16461 7.03921 5.5004 6.625 5.5004H5.75C5.05964 5.5004 4.5 6.06005 4.5 6.7504L4.5 13.2504C4.5 13.9408 5.05964 14.5004 5.75 14.5004H6.625C7.03921 14.5004 7.375 14.8362 7.375 15.2504C7.375 15.6646 7.03921 16.0004 6.625 16.0004H5.75Z" fill="#4A4A4A"/>
<path d="M12.625 15.2504C12.625 14.8362 12.9608 14.5004 13.375 14.5004L14.25 14.5004C14.9404 14.5004 15.5 13.9408 15.5 13.2504V6.7504C15.5 6.06004 14.9404 5.5004 14.25 5.5004H13.375C12.9608 5.5004 12.625 5.16461 12.625 4.7504C12.625 4.33619 12.9608 4.0004 13.375 4.0004L14.25 4.0004C15.7688 4.0004 17 5.23162 17 6.7504V13.2504C17 14.7692 15.7688 16.0004 14.25 16.0004L13.375 16.0004C12.9608 16.0004 12.625 15.6646 12.625 15.2504Z" fill="#4A4A4A"/>
<path d="M9.25018 13.4401V11.0004C9.25018 10.5862 9.58597 10.2504 10.0002 10.2504C10.4144 10.2504 10.7502 10.5862 10.7502 11.0004V13.4399L11.4698 12.7201C11.7627 12.4272 12.2375 12.4272 12.5305 12.72C12.8234 13.0129 12.8234 13.4878 12.5306 13.7807L10.5306 15.7811C10.3899 15.9218 10.1991 16.0008 10.0002 16.0008C9.80129 16.0008 9.61051 15.9218 9.46985 15.7811L7.46985 13.7811C7.17696 13.4882 7.17696 13.0134 7.46985 12.7205C7.76275 12.4276 8.23762 12.4276 8.53051 12.7205L9.25018 13.4401Z" fill="#4A4A4A"/>
</svg>

<svg viewBox="0 0 20 20" xmlns="http://www.w3.org/2000/svg"><path d="M9.25 9v-2.44l-.72.72a.75.75 0 1 1-1.06-1.06l2-2a.75.75 0 0 1 1.06 0l2 2a.75.75 0 0 1-1.06 1.06l-.72-.72v2.44a.75.75 0 0 1-1.5 0Z" fill="#5C5F62"/><path d="M5.75 16a2.75 2.75 0 0 1-2.75-2.75v-6.5a2.75 2.75 0 0 1 2.75-2.75h.875a.75.75 0 0 1 0 1.5h-.875c-.69 0-1.25.56-1.25 1.25v6.5c0 .69.56 1.25 1.25 1.25h.875a.75.75 0 0 1 0 1.5h-.875Z" fill="#5C5F62"/><path d="M12.625 15.25a.75.75 0 0 1 .75-.75h.875c.69 0 1.25-.56 1.25-1.25v-6.5c0-.69-.56-1.25-1.25-1.25h-.875a.75.75 0 0 1 0-1.5h.875a2.75 2.75 0 0 1 2.75 2.75v6.5a2.75 2.75 0 0 1-2.75 2.75h-.875a.75.75 0 0 1-.75-.75Z" fill="#5C5F62"/><path d="M9.25 13.44v-2.44a.75.75 0 0 1 1.5 0v2.44l.72-.72a.75.75 0 0 1 1.06 1.06l-2 2.001a.75.75 0 0 1-1.06 0l-2-2a.75.75 0 1 1 1.06-1.06l.72.72Z" fill="#5C5F62"/></svg>
